images/16677983.svg

<?xml version="1.0" encoding="UTF-8"?>
<svg xmlns="http://www.w3.org/2000/svg" xmlns:xlink="http://www.w3.org/1999/xlink" width="300pt" height="300pt" viewBox="0 0 300 300" version="1.1">
<defs>
<g>
<symbol overflow="visible" id="glyph0-0">
<path style="stroke:none;" d="M 0.546875 1.9375 L 0.546875 -7.75 L 6.046875 -7.75 L 6.046875 1.9375 Z M 1.171875 1.328125 L 5.4375 1.328125 L 5.4375 -7.140625 L 1.171875 -7.140625 Z M 1.171875 1.328125 "/>
</symbol>
<symbol overflow="visible" id="glyph0-1">
<path style="stroke:none;" d="M 1.078125 -8.015625 L 2.546875 -8.015625 L 6.09375 -1.3125 L 6.09375 -8.015625 L 7.15625 -8.015625 L 7.15625 0 L 5.6875 0 L 2.125 -6.703125 L 2.125 0 L 1.078125 0 Z M 1.078125 -8.015625 "/>
</symbol>
<symbol overflow="visible" id="glyph0-2">
<path style="stroke:none;" d="M 1.078125 -8.015625 L 2.171875 -8.015625 L 2.171875 -4.734375 L 6.109375 -4.734375 L 6.109375 -8.015625 L 7.1875 -8.015625 L 7.1875 0 L 6.109375 0 L 6.109375 -3.8125 L 2.171875 -3.8125 L 2.171875 0 L 1.078125 0 Z M 1.078125 -8.015625 "/>
</symbol>
<symbol overflow="visible" id="glyph0-3">
<path style="stroke:none;" d="M 4.328125 -7.28125 C 3.546875 -7.28125 2.921875 -6.984375 2.453125 -6.390625 C 1.992188 -5.804688 1.765625 -5.007812 1.765625 -4 C 1.765625 -2.988281 1.992188 -2.1875 2.453125 -1.59375 C 2.921875 -1.007812 3.546875 -0.71875 4.328125 -0.71875 C 5.117188 -0.71875 5.742188 -1.007812 6.203125 -1.59375 C 6.660156 -2.1875 6.890625 -2.988281 6.890625 -4 C 6.890625 -5.007812 6.660156 -5.804688 6.203125 -6.390625 C 5.742188 -6.984375 5.117188 -7.28125 4.328125 -7.28125 Z M 4.328125 -8.171875 C 5.453125 -8.171875 6.351562 -7.789062 7.03125 -7.03125 C 7.707031 -6.28125 8.046875 -5.269531 8.046875 -4 C 8.046875 -2.738281 7.707031 -1.726562 7.03125 -0.96875 C 6.351562 -0.21875 5.453125 0.15625 4.328125 0.15625 C 3.203125 0.15625 2.300781 -0.21875 1.625 -0.96875 C 0.957031 -1.71875 0.625 -2.726562 0.625 -4 C 0.625 -5.269531 0.957031 -6.28125 1.625 -7.03125 C 2.300781 -7.789062 3.203125 -8.171875 4.328125 -8.171875 Z M 4.328125 -8.171875 "/>
</symbol>
<symbol overflow="visible" id="glyph0-4">
<path style="stroke:none;" d="M 7.078125 -7.40625 L 7.078125 -6.25 C 6.710938 -6.59375 6.320312 -6.847656 5.90625 -7.015625 C 5.5 -7.179688 5.0625 -7.265625 4.59375 -7.265625 C 3.675781 -7.265625 2.972656 -6.984375 2.484375 -6.421875 C 2.003906 -5.867188 1.765625 -5.0625 1.765625 -4 C 1.765625 -2.945312 2.003906 -2.140625 2.484375 -1.578125 C 2.972656 -1.015625 3.675781 -0.734375 4.59375 -0.734375 C 5.0625 -0.734375 5.5 -0.816406 5.90625 -0.984375 C 6.320312 -1.148438 6.710938 -1.40625 7.078125 -1.75 L 7.078125 -0.625 C 6.703125 -0.363281 6.300781 -0.164062 5.875 -0.03125 C 5.457031 0.09375 5.007812 0.15625 4.53125 0.15625 C 3.320312 0.15625 2.367188 -0.210938 1.671875 -0.953125 C 0.972656 -1.703125 0.625 -2.71875 0.625 -4 C 0.625 -5.289062 0.972656 -6.304688 1.671875 -7.046875 C 2.367188 -7.796875 3.320312 -8.171875 4.53125 -8.171875 C 5.007812 -8.171875 5.460938 -8.101562 5.890625 -7.96875 C 6.316406 -7.84375 6.710938 -7.65625 7.078125 -7.40625 Z M 7.078125 -7.40625 "/>
</symbol>
<symbol overflow="visible" id="glyph0-5">
<path style="stroke:none;" d="M 0.9375 -2.375 L 0.9375 -6.015625 L 1.921875 -6.015625 L 1.921875 -2.40625 C 1.921875 -1.84375 2.03125 -1.414062 2.25 -1.125 C 2.476562 -0.84375 2.8125 -0.703125 3.25 -0.703125 C 3.789062 -0.703125 4.210938 -0.867188 4.515625 -1.203125 C 4.828125 -1.546875 4.984375 -2.015625 4.984375 -2.609375 L 4.984375 -6.015625 L 5.96875 -6.015625 L 5.96875 0 L 4.984375 0 L 4.984375 -0.921875 C 4.742188 -0.554688 4.460938 -0.285156 4.140625 -0.109375 C 3.828125 0.0664062 3.460938 0.15625 3.046875 0.15625 C 2.359375 0.15625 1.832031 -0.0546875 1.46875 -0.484375 C 1.113281 -0.921875 0.9375 -1.550781 0.9375 -2.375 Z M 3.421875 -6.15625 Z M 3.421875 -6.15625 "/>
</symbol>
<symbol overflow="visible" id="glyph1-0">
<path style="stroke:none;" d="M 0.453125 1.59375 L 0.453125 -6.34375 L 4.953125 -6.34375 L 4.953125 1.59375 Z M 0.953125 1.09375 L 4.453125 1.09375 L 4.453125 -5.84375 L 0.953125 -5.84375 Z M 0.953125 1.09375 "/>
</symbol>
<symbol overflow="visible" id="glyph1-1">
<path style="stroke:none;" d="M 4.140625 -5.640625 L 4.140625 -3.1875 L 6.59375 -3.1875 L 6.59375 -2.453125 L 4.140625 -2.453125 L 4.140625 0 L 3.40625 0 L 3.40625 -2.453125 L 0.953125 -2.453125 L 0.953125 -3.1875 L 3.40625 -3.1875 L 3.40625 -5.640625 Z M 4.140625 -5.640625 "/>
</symbol>
<symbol overflow="visible" id="glyph1-2">
<path style="stroke:none;" d="M 0.4375 -2.828125 L 2.8125 -2.828125 L 2.8125 -2.109375 L 0.4375 -2.109375 Z M 0.4375 -2.828125 "/>
</symbol>
</g>
</defs>
<g id="surface47425">
<rect x="0" y="0" width="300" height="300" style="fill:rgb(100%,100%,100%);fill-opacity:1;stroke:none;"/>
<path style=" stroke:none;fill-rule:nonzero;fill:rgb(0%,0%,0%);fill-opacity:1;" d="M 236.292969 178.664062 L 260.800781 163.011719 L 253.964844 155.566406 Z M 236.292969 178.664062 "/>
<path style="fill:none;stroke-width:1.2;stroke-linecap:butt;stroke-linejoin:miter;stroke:rgb(0%,0%,0%);stroke-opacity:1;stroke-miterlimit:10;" d="M 236.292969 178.664062 L 208.964844 170.085938 "/>
<path style="fill:none;stroke-width:1.2;stroke-linecap:butt;stroke-linejoin:miter;stroke:rgb(0%,0%,0%);stroke-opacity:1;stroke-miterlimit:10;" d="M 236.292969 178.664062 L 239.410156 192.640625 "/>
<path style="fill:none;stroke-width:1.2;stroke-linecap:butt;stroke-linejoin:miter;stroke:rgb(100%,0%,0%);stroke-opacity:1;stroke-miterlimit:10;" d="M 239.410156 192.640625 L 242.527344 206.621094 "/>
<path style="fill:none;stroke-width:1.2;stroke-linecap:butt;stroke-linejoin:miter;stroke:rgb(0%,0%,0%);stroke-opacity:1;stroke-miterlimit:10;" d="M 208.964844 170.085938 L 198.417969 179.777344 "/>
<path style="fill:none;stroke-width:1.2;stroke-linecap:butt;stroke-linejoin:miter;stroke:rgb(0%,0%,100%);stroke-opacity:1;stroke-miterlimit:10;" d="M 198.417969 179.777344 L 187.871094 189.464844 "/>
<path style="fill:none;stroke-width:1.2;stroke-linecap:butt;stroke-linejoin:miter;stroke:rgb(0%,0%,100%);stroke-opacity:1;stroke-miterlimit:10;" d="M 187.871094 189.464844 L 174.210938 185.175781 "/>
<path style="fill:none;stroke-width:1.2;stroke-linecap:butt;stroke-linejoin:miter;stroke:rgb(0%,0%,0%);stroke-opacity:1;stroke-miterlimit:10;" d="M 174.210938 185.175781 L 160.546875 180.886719 "/>
<path style="fill:none;stroke-width:1.2;stroke-linecap:butt;stroke-linejoin:miter;stroke:rgb(0%,0%,100%);stroke-opacity:1;stroke-miterlimit:10;" d="M 187.871094 189.464844 L 190.988281 203.441406 "/>
<path style="fill:none;stroke-width:1.2;stroke-linecap:butt;stroke-linejoin:miter;stroke:rgb(0%,0%,0%);stroke-opacity:1;stroke-miterlimit:10;" d="M 190.988281 203.441406 L 194.109375 217.417969 "/>
<path style=" stroke:none;fill-rule:nonzero;fill:rgb(100%,100%,100%);fill-opacity:1;" d="M 183.871094 182.964844 L 191.871094 182.964844 L 191.871094 195.964844 L 183.871094 195.964844 Z M 183.871094 182.964844 "/>
<g style="fill:rgb(0%,0%,100%);fill-opacity:1;">
  <use xlink:href="#glyph0-1" x="183.871094" y="192.866211"/>
</g>
<path style="fill:none;stroke-width:1.2;stroke-linecap:butt;stroke-linejoin:miter;stroke:rgb(0%,0%,0%);stroke-opacity:1;stroke-miterlimit:10;" d="M 160.546875 180.886719 L 139.453125 200.261719 "/>
<path style="fill:none;stroke-width:1.2;stroke-linecap:butt;stroke-linejoin:miter;stroke:rgb(0%,0%,0%);stroke-opacity:1;stroke-miterlimit:10;" d="M 139.453125 200.261719 L 125.789062 195.976562 "/>
<path style="fill:none;stroke-width:1.2;stroke-linecap:butt;stroke-linejoin:miter;stroke:rgb(0%,0%,100%);stroke-opacity:1;stroke-miterlimit:10;" d="M 125.789062 195.976562 L 112.128906 191.6875 "/>
<path style="fill:none;stroke-width:1.2;stroke-linecap:butt;stroke-linejoin:miter;stroke:rgb(0%,0%,100%);stroke-opacity:1;stroke-miterlimit:10;" d="M 112.128906 191.6875 L 101.582031 201.375 "/>
<path style="fill:none;stroke-width:1.2;stroke-linecap:butt;stroke-linejoin:miter;stroke:rgb(0%,0%,0%);stroke-opacity:1;stroke-miterlimit:10;" d="M 101.582031 201.375 L 91.035156 211.0625 "/>
<path style="fill:none;stroke-width:1.2;stroke-linecap:butt;stroke-linejoin:miter;stroke:rgb(0%,0%,100%);stroke-opacity:1;stroke-miterlimit:10;" d="M 112.128906 191.6875 L 109.011719 177.707031 "/>
<path style="fill:none;stroke-width:1.2;stroke-linecap:butt;stroke-linejoin:miter;stroke:rgb(0%,0%,0%);stroke-opacity:1;stroke-miterlimit:10;" d="M 109.011719 177.707031 L 105.890625 163.730469 "/>
<path style=" stroke:none;fill-rule:nonzero;fill:rgb(100%,100%,100%);fill-opacity:1;" d="M 108.128906 185.1875 L 116.128906 185.1875 L 116.128906 198.1875 L 108.128906 198.1875 Z M 108.128906 185.1875 "/>
<g style="fill:rgb(0%,0%,100%);fill-opacity:1;">
  <use xlink:href="#glyph0-1" x="108.128906" y="195.088867"/>
</g>
<path style=" stroke:none;fill-rule:nonzero;fill:rgb(0%,0%,0%);fill-opacity:1;" d="M 63.707031 202.484375 L 89.523438 215.886719 L 92.550781 206.242188 Z M 63.707031 202.484375 "/>
<path style="fill:none;stroke-width:1.2;stroke-linecap:butt;stroke-linejoin:miter;stroke:rgb(0%,0%,0%);stroke-opacity:1;stroke-miterlimit:10;" d="M 63.707031 202.484375 L 42.617188 221.863281 "/>
<path style="fill:none;stroke-width:1.2;stroke-linecap:butt;stroke-linejoin:miter;stroke:rgb(0%,0%,0%);stroke-opacity:1;stroke-miterlimit:10;" d="M 63.707031 202.484375 L 60.589844 188.507812 "/>
<path style="fill:none;stroke-width:1.2;stroke-linecap:butt;stroke-linejoin:miter;stroke:rgb(100%,0%,0%);stroke-opacity:1;stroke-miterlimit:10;" d="M 60.589844 188.507812 L 57.472656 174.53125 "/>
<path style=" stroke:none;fill-rule:nonzero;fill:rgb(100%,100%,100%);fill-opacity:1;" d="M 49.472656 168.03125 L 66.472656 168.03125 L 66.472656 181.03125 L 49.472656 181.03125 Z M 49.472656 168.03125 "/>
<g style="fill:rgb(100%,0%,0%);fill-opacity:1;">
  <use xlink:href="#glyph0-2" x="49.472656" y="177.932617"/>
  <use xlink:href="#glyph0-3" x="57.49707" y="177.932617"/>
</g>
<path style=" stroke:none;fill-rule:nonzero;fill:rgb(0%,0%,0%);fill-opacity:1;" d="M 126.984375 144.355469 L 102.472656 160.007812 L 109.3125 167.453125 Z M 126.984375 144.355469 "/>
<path style="fill:none;stroke-width:1.2;stroke-linecap:butt;stroke-linejoin:miter;stroke:rgb(0%,0%,0%);stroke-opacity:1;stroke-miterlimit:10;" d="M 126.984375 144.355469 L 120.75 116.398438 "/>
<path style="fill:none;stroke-width:1.2;stroke-linecap:butt;stroke-linejoin:miter;stroke:rgb(0%,0%,0%);stroke-opacity:1;stroke-miterlimit:10;" d="M 126.984375 144.355469 L 140.648438 148.644531 "/>
<path style="fill:none;stroke-width:1.2;stroke-linecap:butt;stroke-linejoin:miter;stroke:rgb(100%,0%,0%);stroke-opacity:1;stroke-miterlimit:10;" d="M 140.648438 148.644531 L 154.3125 152.933594 "/>
<path style=" stroke:none;fill-rule:nonzero;fill:rgb(100%,100%,100%);fill-opacity:1;" d="M 146.3125 146.433594 L 163.3125 146.433594 L 163.3125 159.433594 L 146.3125 159.433594 Z M 146.3125 146.433594 "/>
<g style="fill:rgb(100%,0%,0%);fill-opacity:1;">
  <use xlink:href="#glyph0-3" x="146.3125" y="156.334961"/>
  <use xlink:href="#glyph0-2" x="154.712891" y="156.334961"/>
</g>
<path style=" stroke:none;fill-rule:nonzero;fill:rgb(0%,0%,0%);fill-opacity:1;" d="M 173.015625 236.796875 L 197.527344 221.140625 L 190.6875 213.695312 Z M 173.015625 236.796875 "/>
<path style="fill:none;stroke-width:1.2;stroke-linecap:butt;stroke-linejoin:miter;stroke:rgb(0%,0%,0%);stroke-opacity:1;stroke-miterlimit:10;" d="M 173.015625 236.796875 L 179.25 264.75 "/>
<path style="fill:none;stroke-width:1.2;stroke-linecap:butt;stroke-linejoin:miter;stroke:rgb(0%,0%,0%);stroke-opacity:1;stroke-miterlimit:10;" d="M 173.015625 236.796875 L 159.351562 232.507812 "/>
<path style="fill:none;stroke-width:1.2;stroke-linecap:butt;stroke-linejoin:miter;stroke:rgb(100%,0%,0%);stroke-opacity:1;stroke-miterlimit:10;" d="M 159.351562 232.507812 L 145.6875 228.21875 "/>
<path style=" stroke:none;fill-rule:nonzero;fill:rgb(100%,100%,100%);fill-opacity:1;" d="M 128.6875 221.71875 L 145.6875 221.71875 L 145.6875 234.71875 L 128.6875 234.71875 Z M 128.6875 221.71875 "/>
<g style="fill:rgb(100%,0%,0%);fill-opacity:1;">
  <use xlink:href="#glyph0-2" x="128.6875" y="231.620117"/>
  <use xlink:href="#glyph0-3" x="136.711914" y="231.620117"/>
</g>
<path style=" stroke:none;fill-rule:nonzero;fill:rgb(100%,100%,100%);fill-opacity:1;" d="M 234.527344 200.121094 L 251.527344 200.121094 L 251.527344 213.121094 L 234.527344 213.121094 Z M 234.527344 200.121094 "/>
<g style="fill:rgb(100%,0%,0%);fill-opacity:1;">
  <use xlink:href="#glyph0-3" x="234.527344" y="210.022461"/>
  <use xlink:href="#glyph0-2" x="242.927734" y="210.022461"/>
</g>
<path style="fill:none;stroke-width:1.2;stroke-linecap:butt;stroke-linejoin:miter;stroke:rgb(0%,0%,100%);stroke-opacity:1;stroke-miterlimit:10;" d="M 146.628906 68.664062 L 146.628906 82.984375 "/>
<path style="fill:none;stroke-width:1.2;stroke-linecap:butt;stroke-linejoin:miter;stroke:rgb(100%,0%,0%);stroke-opacity:1;stroke-miterlimit:10;" d="M 146.628906 82.984375 L 146.628906 97.304688 "/>
<path style="fill:none;stroke-width:1.2;stroke-linecap:butt;stroke-linejoin:miter;stroke:rgb(0%,0%,100%);stroke-opacity:1;stroke-miterlimit:10;" d="M 153.371094 68.664062 L 153.371094 82.984375 "/>
<path style="fill:none;stroke-width:1.2;stroke-linecap:butt;stroke-linejoin:miter;stroke:rgb(100%,0%,0%);stroke-opacity:1;stroke-miterlimit:10;" d="M 153.371094 82.984375 L 153.371094 97.304688 "/>
<path style="fill:none;stroke-width:1.2;stroke-linecap:butt;stroke-linejoin:miter;stroke:rgb(0%,0%,100%);stroke-opacity:1;stroke-miterlimit:10;" d="M 150 68.664062 L 137.597656 61.503906 "/>
<path style="fill:none;stroke-width:1.2;stroke-linecap:butt;stroke-linejoin:miter;stroke:rgb(100%,0%,0%);stroke-opacity:1;stroke-miterlimit:10;" d="M 137.597656 61.503906 L 125.195312 54.34375 "/>
<path style="fill:none;stroke-width:1.2;stroke-linecap:butt;stroke-linejoin:miter;stroke:rgb(0%,0%,100%);stroke-opacity:1;stroke-miterlimit:10;" d="M 150 68.664062 L 162.402344 61.503906 "/>
<path style="fill:none;stroke-width:1.2;stroke-linecap:butt;stroke-linejoin:miter;stroke:rgb(100%,0%,0%);stroke-opacity:1;stroke-miterlimit:10;" d="M 162.402344 61.503906 L 174.804688 54.34375 "/>
<path style=" stroke:none;fill-rule:nonzero;fill:rgb(100%,100%,100%);fill-opacity:1;" d="M 142 60.664062 L 158 60.664062 L 158 76.664062 L 142 76.664062 Z M 142 60.664062 "/>
<g style="fill:rgb(0%,0%,100%);fill-opacity:1;">
  <use xlink:href="#glyph0-1" x="142" y="73.796875"/>
</g>
<g style="fill:rgb(0%,0%,100%);fill-opacity:1;">
  <use xlink:href="#glyph1-1" x="149.983398" y="68.914062"/>
</g>
<path style=" stroke:none;fill-rule:nonzero;fill:rgb(100%,100%,100%);fill-opacity:1;" d="M 146 90.804688 L 155 90.804688 L 155 103.804688 L 146 103.804688 Z M 146 90.804688 "/>
<g style="fill:rgb(100%,0%,0%);fill-opacity:1;">
  <use xlink:href="#glyph0-3" x="146" y="100.706055"/>
</g>
<path style=" stroke:none;fill-rule:nonzero;fill:rgb(100%,100%,100%);fill-opacity:1;" d="M 108.195312 47.84375 L 125.195312 47.84375 L 125.195312 60.84375 L 108.195312 60.84375 Z M 108.195312 47.84375 "/>
<g style="fill:rgb(100%,0%,0%);fill-opacity:1;">
  <use xlink:href="#glyph0-2" x="108.195312" y="57.745117"/>
  <use xlink:href="#glyph0-3" x="116.219727" y="57.745117"/>
</g>
<path style=" stroke:none;fill-rule:nonzero;fill:rgb(100%,100%,100%);fill-opacity:1;" d="M 168.804688 46.34375 L 180.804688 46.34375 L 180.804688 62.34375 L 168.804688 62.34375 Z M 168.804688 46.34375 "/>
<g style="fill:rgb(100%,0%,0%);fill-opacity:1;">
  <use xlink:href="#glyph0-3" x="168.804688" y="59.476562"/>
</g>
<g style="fill:rgb(100%,0%,0%);fill-opacity:1;">
  <use xlink:href="#glyph1-2" x="177.205078" y="54.59375"/>
</g>
<path style=" stroke:none;fill-rule:nonzero;fill:rgb(100%,100%,100%);fill-opacity:1;" d="M 143 28.75 L 158 28.75 L 158 41.75 L 143 41.75 Z M 143 28.75 "/>
<g style="fill:rgb(0%,0%,0%);fill-opacity:1;">
  <use xlink:href="#glyph0-4" x="143" y="38.651367"/>
  <use xlink:href="#glyph0-5" x="150.451172" y="38.651367"/>
</g>
</g>
</svg>

<svg xmlns="http://www.w3.org/2000/svg" xmlns:xlink="http://www.w3.org/1999/xlink" width="300pt" height="300pt" viewBox="0 0 300 300"><defs><symbol overflow="visible"><path d="M.547 1.938V-7.75h5.5v9.688zm.625-.61h4.266v-8.47H1.171zm0 0"/></symbol><symbol overflow="visible" id="a"><path d="M1.078-8.016h1.47l3.546 6.704v-6.704h1.062V0H5.688L2.124-6.703V0H1.078zm0 0"/></symbol><symbol overflow="visible" id="b"><path d="M1.078-8.016h1.094v3.282H6.11v-3.282h1.077V0H6.11v-3.813H2.17V0H1.078zm0 0"/></symbol><symbol overflow="visible" id="c"><path d="M4.328-7.28c-.78 0-1.406.296-1.875.89-.46.585-.687 1.382-.687 2.39 0 1.012.226 1.813.687 2.406.47.586 1.094.875 1.875.875.79 0 1.414-.288 1.875-.874.457-.593.688-1.394.688-2.406 0-1.008-.23-1.805-.687-2.39-.46-.594-1.086-.89-1.875-.89zm0-.892c1.125 0 2.024.383 2.703 1.14C7.708-6.28 8.048-5.27 8.048-4c0 1.262-.34 2.273-1.016 3.03C6.353-.22 5.454.157 4.33.157S2.3-.22 1.625-.97c-.668-.75-1-1.757-1-3.03 0-1.27.332-2.28 1-3.03.676-.76 1.578-1.142 2.703-1.142zm0 0"/></symbol><symbol overflow="visible" id="f"><path d="M7.078-7.406v1.156c-.367-.344-.758-.598-1.172-.766-.406-.164-.843-.25-1.312-.25-.918 0-1.62.282-2.11.844-.48.555-.718 1.36-.718 2.422 0 1.055.238 1.86.718 2.422.49.562 1.192.844 2.11.844.468 0 .906-.082 1.312-.25.414-.164.805-.422 1.172-.766v1.125c-.375.262-.777.46-1.203.594-.418.124-.867.186-1.344.186-1.21 0-2.163-.367-2.858-1.11C.972-1.703.625-2.718.625-4c0-1.29.348-2.305 1.047-3.047.695-.75 1.648-1.125 2.86-1.125.476 0 .93.07 1.36.203.424.126.82.314 1.186.564zm0 0"/></symbol><symbol overflow="visible" id="g"><path d="M.938-2.375v-3.64h.984v3.61c0 .56.11.99.328 1.28.227.28.563.422 1 .422.54 0 .96-.164 1.266-.5.312-.344.468-.813.468-1.406v-3.406h.985V0h-.986v-.922c-.242.367-.523.637-.843.813-.312.176-.68.266-1.093.266-.688 0-1.215-.21-1.578-.64C1.112-.922.937-1.55.937-2.374zm2.484-3.78zm0 0"/></symbol><symbol overflow="visible"><path d="M.453 1.594v-7.938h4.5v7.938zm.5-.5h3.5v-6.938h-3.5zm0 0"/></symbol><symbol overflow="visible" id="d"><path d="M4.14-5.64v2.452h2.454v.735H4.14V0h-.734v-2.453H.953v-.735h2.453V-5.64zm0 0"/></symbol><symbol overflow="visible" id="e"><path d="M.438-2.828h2.374v.72H.438zm0 0"/></symbol></defs><g><path fill="#fff" d="M0 0h300v300H0z"/><path d="M236.293 178.664l24.508-15.652-6.835-7.446zm0 0"/><path d="M236.293 178.664l-27.328-8.578M236.293 178.664l3.117 13.977" stroke-width="1.2" stroke="#000" stroke-miterlimit="10" fill="none"/><path d="M239.41 192.64l3.117 13.98" stroke-width="1.2" stroke="#f00" stroke-miterlimit="10" fill="none"/><path d="M208.965 170.086l-10.547 9.69" stroke-width="1.2" stroke="#000" stroke-miterlimit="10" fill="none"/><path d="M198.418 179.777l-10.547 9.688M187.87 189.465l-13.66-4.29" stroke-width="1.2" stroke="#00f" stroke-miterlimit="10" fill="none"/><path d="M174.21 185.176l-13.663-4.29" stroke-width="1.2" stroke="#000" stroke-miterlimit="10" fill="none"/><path d="M187.87 189.465l3.118 13.976" stroke-width="1.2" stroke="#00f" stroke-miterlimit="10" fill="none"/><path d="M190.988 203.44l3.12 13.978" stroke-width="1.2" stroke="#000" stroke-miterlimit="10" fill="none"/><path d="M183.87 182.965h8v13h-8zm0 0" fill="#fff"/><use xlink:href="#a" x="183.871" y="192.866" fill="#00f"/><path d="M160.547 180.887l-21.094 19.375M139.453 200.262l-13.664-4.285" stroke-width="1.2" stroke="#000" stroke-miterlimit="10" fill="none"/><path d="M125.79 195.977l-13.66-4.29M112.13 191.688l-10.548 9.687" stroke-width="1.2" stroke="#00f" stroke-miterlimit="10" fill="none"/><path d="M101.582 201.375l-10.547 9.688" stroke-width="1.2" stroke="#000" stroke-miterlimit="10" fill="none"/><path d="M112.13 191.688l-3.118-13.98" stroke-width="1.2" stroke="#00f" stroke-miterlimit="10" fill="none"/><path d="M109.012 177.707l-3.12-13.977" stroke-width="1.2" stroke="#000" stroke-miterlimit="10" fill="none"/><path d="M108.13 185.188h8v13h-8zm0 0" fill="#fff"/><use xlink:href="#a" x="108.129" y="195.089" fill="#00f"/><path d="M63.707 202.484l25.816 13.403 3.028-9.645zm0 0"/><path d="M63.707 202.484l-21.09 19.38M63.707 202.484l-3.117-13.976" stroke-width="1.2" stroke="#000" stroke-miterlimit="10" fill="none"/><path d="M60.59 188.508l-3.117-13.977" stroke-width="1.2" stroke="#f00" stroke-miterlimit="10" fill="none"/><path d="M49.473 168.03h17v13h-17zm0 0" fill="#fff"/><g fill="#f00"><use xlink:href="#b" x="49.473" y="177.933"/><use xlink:href="#c" x="57.497" y="177.933"/></g><path d="M126.984 144.355l-24.51 15.653 6.838 7.445zm0 0"/><path d="M126.984 144.355l-6.234-27.957M126.984 144.355l13.664 4.29" stroke-width="1.2" stroke="#000" stroke-miterlimit="10" fill="none"/><path d="M140.648 148.645l13.665 4.29" stroke-width="1.2" stroke="#f00" stroke-miterlimit="10" fill="none"/><path d="M146.313 146.434h17v13h-17zm0 0" fill="#fff"/><g fill="#f00"><use xlink:href="#c" x="146.313" y="156.335"/><use xlink:href="#b" x="154.713" y="156.335"/></g><path d="M173.016 236.797l24.51-15.656-6.84-7.445zm0 0"/><path d="M173.016 236.797l6.234 27.953M173.016 236.797l-13.664-4.29" stroke-width="1.2" stroke="#000" stroke-miterlimit="10" fill="none"/><path d="M159.352 232.508l-13.665-4.29" stroke-width="1.2" stroke="#f00" stroke-miterlimit="10" fill="none"/><path d="M128.688 221.72h17v13h-17zm0 0" fill="#fff"/><g fill="#f00"><use xlink:href="#b" x="128.688" y="231.62"/><use xlink:href="#c" x="136.712" y="231.62"/></g><path d="M234.527 200.12h17v13h-17zm0 0" fill="#fff"/><g fill="#f00"><use xlink:href="#c" x="234.527" y="210.022"/><use xlink:href="#b" x="242.928" y="210.022"/></g><path d="M146.63 68.664v14.32" stroke-width="1.2" stroke="#00f" stroke-miterlimit="10" fill="none"/><path d="M146.63 82.984v14.32" stroke-width="1.2" stroke="#f00" stroke-miterlimit="10" fill="none"/><path d="M153.37 68.664v14.32" stroke-width="1.2" stroke="#00f" stroke-miterlimit="10" fill="none"/><path d="M153.37 82.984v14.32" stroke-width="1.2" stroke="#f00" stroke-miterlimit="10" fill="none"/><path d="M150 68.664l-12.402-7.16" stroke-width="1.2" stroke="#00f" stroke-miterlimit="10" fill="none"/><path d="M137.598 61.504l-12.403-7.16" stroke-width="1.2" stroke="#f00" stroke-miterlimit="10" fill="none"/><path d="M150 68.664l12.402-7.16" stroke-width="1.2" stroke="#00f" stroke-miterlimit="10" fill="none"/><path d="M162.402 61.504l12.403-7.16" stroke-width="1.2" stroke="#f00" stroke-miterlimit="10" fill="none"/><path d="M142 60.664h16v16h-16zm0 0" fill="#fff"/><use xlink:href="#a" x="142" y="73.797" fill="#00f"/><use xlink:href="#d" x="149.983" y="68.914" fill="#00f"/><path d="M146 90.805h9v13h-9zm0 0" fill="#fff"/><use xlink:href="#c" x="146" y="100.706" fill="#f00"/><path d="M108.195 47.844h17v13h-17zm0 0" fill="#fff"/><g fill="#f00"><use xlink:href="#b" x="108.195" y="57.745"/><use xlink:href="#c" x="116.22" y="57.745"/></g><path d="M168.805 46.344h12v16h-12zm0 0" fill="#fff"/><use xlink:href="#c" x="168.805" y="59.477" fill="#f00"/><use xlink:href="#e" x="177.205" y="54.594" fill="#f00"/><path d="M143 28.75h15v13h-15zm0 0" fill="#fff"/><use xlink:href="#f" x="143" y="38.651"/><use xlink:href="#g" x="150.451" y="38.651"/></g></svg>
